X: 1
T: Moyglass Fair, The
M: 2/4
L: 1/8
R: polka
K: Gmaj
|: B/c/ | dg BA | GB AG/A/ | BA AB/d/ | ed B>c |
dg BA | GB AG/A/ | B/c/B/A/ BA | G2- G :|
|: A | BA AB/d/ | ed BA | BA AB/d/ | e/f/e/d/ B>c |
dg BA | GB AG/A/ | B/c/B/A/ BA | G2- G :|
